client/src/asserts/icons/order-status_error.svg

<svg width="68" height="67" viewBox="0 0 68 67" fill="none" xmlns="http://www.w3.org/2000/svg">
<rect x="0.5" width="67" height="67" rx="33.5" fill="#E3170A"/>
<path fill-rule="evenodd" clip-rule="evenodd" d="M19.4339 18.9658C19.912 18.4879 20.5604 18.2194 21.2364 18.2194C21.9125 18.2194 22.5608 18.4879 23.039 18.9658L33.984 29.9109L44.9291 18.9658C45.1643 18.7223 45.4456 18.5281 45.7567 18.3945C46.0677 18.2609 46.4023 18.1905 46.7408 18.1876C47.0793 18.1847 47.415 18.2492 47.7284 18.3774C48.0417 18.5055 48.3263 18.6949 48.5657 18.9342C48.8051 19.1736 48.9944 19.4583 49.1226 19.7716C49.2508 20.0849 49.3153 20.4206 49.3124 20.7592C49.3094 21.0977 49.2391 21.4322 49.1055 21.7433C48.9719 22.0543 48.7776 22.3357 48.5341 22.5709L37.589 33.5159L48.5341 44.461C48.9985 44.9419 49.2555 45.5859 49.2497 46.2543C49.2439 46.9228 48.9758 47.5623 48.5031 48.035C48.0304 48.5077 47.3909 48.7758 46.7224 48.7816C46.054 48.7874 45.41 48.5304 44.9291 48.066L33.984 37.121L23.039 48.066C22.5581 48.5304 21.9141 48.7874 21.2456 48.7816C20.5771 48.7758 19.9377 48.5077 19.465 48.035C18.9923 47.5623 18.7242 46.9228 18.7183 46.2543C18.7125 45.5859 18.9695 44.9419 19.4339 44.461L30.379 33.5159L19.4339 22.5709C18.956 22.0928 18.6875 21.4444 18.6875 20.7683C18.6875 20.0923 18.956 19.4439 19.4339 18.9658Z" fill="white"/>
</svg>

<svg width="68" height="67" viewBox="0 0 68 67" xmlns="http://www.w3.org/2000/svg" fill="none"><rect x=".5" width="67" height="67" rx="33.5" fill="#E3170A"/><path fill-rule="evenodd" clip-rule="evenodd" d="M19.434 18.966c.478-.478 1.127-.746 1.802-.746.676 0 1.324.268 1.803.746l10.945 10.945 10.945-10.945c.235-.244.517-.438.828-.571.311-.134.646-.204.984-.207.339-.003.674.062.988.19.313.128.598.317.837.557.239.239.429.524.557.837.128.313.193.649.19.988-.003.338-.073.673-.207.984-.134.311-.328.592-.571.828l-10.945 10.945 10.945 10.945c.464.481.721 1.125.716 1.793-.006.669-.274 1.308-.747 1.781-.473.473-1.112.741-1.781.747-.668.006-1.312-.251-1.793-.716l-10.945-10.945-10.945 10.945c-.481.464-1.125.721-1.793.716-.668-.006-1.308-.274-1.781-.747-.473-.473-.741-1.112-.747-1.781-.006-.668.251-1.312.716-1.793l10.945-10.945-10.945-10.945c-.478-.478-.746-1.127-.746-1.803 0-.676.268-1.324.746-1.802z" fill="#fff"/></svg>
